assets/logos/icons/menu-grid.svg

<svg height="24" viewBox="0 0 24 24" width="24" xmlns="http://www.w3.org/2000/svg"><path d="m2.99999995 1.99999995h2c.60000002 0 1.00000002.4 1 1v2c.00000002.60000002-.39999998 1.00000002-1 1h-2c-.6.00000002-1-.39999998-1-1v-2c0-.6.4-1 1-1zm8.00000005 0h2c.6 0 1 .4 1 1v2c0 .60000002-.4 1.00000002-1 1h-2c-.6.00000002-1.00000001-.39999998-1.00000001-1v-2c0-.6.40000001-1 1.00000001-1zm8 0h2c.6 0 1.0000001.4 1 1v2c.0000001.60000002-.4 1.00000002-1 1h-2c-.6.00000002-1-.39999998-1-1v-2c0-.6.4-1 1-1zm-16.00000005 8.00000004h2c.60000002 0 1.00000002.40000001 1 1.00000001v2c.00000002.6-.39999998 1-1 1h-2c-.6 0-1-.4-1-1v-2c0-.6.4-1.00000001 1-1.00000001zm8.00000005 0h2c.6 0 1 .40000001 1 1.00000001v2c0 .6-.4 1-1 1h-2c-.6 0-1.00000001-.4-1.00000001-1v-2c0-.6.40000001-1.00000001 1.00000001-1.00000001zm8 0h2c.6 0 1.0000001.40000001 1 1.00000001v2c.0000001.6-.4 1-1 1h-2c-.6 0-1-.4-1-1v-2c0-.6.4-1.00000001 1-1.00000001zm-16.00000005 8.00000001h2c.60000002 0 1.00000002.4 1 1v2c.00000002.6-.39999998 1.0000001-1 1h-2c-.6.0000001-1-.4-1-1v-2c0-.6.4-1 1-1zm8.00000005 0h2c.6 0 1 .4 1 1v2c0 .6-.4 1.0000001-1 1h-2c-.6.0000001-1.00000001-.4-1.00000001-1v-2c0-.6.40000001-1 1.00000001-1zm8 0h2c.6 0 1.0000001.4 1 1v2c.0000001.6-.4 1.0000001-1 1h-2c-.6.0000001-1-.4-1-1v-2c0-.6.4-1 1-1z" fill="#492f5c" fill-rule="evenodd"/></svg>

<svg xmlns="http://www.w3.org/2000/svg" xmlns:xlink="http://www.w3.org/1999/xlink" width="24" height="24" viewBox="0 0 24 24">
  <defs>
    <path id="menu-grid-a" d="M2.99999995,1.99999995 L4.99999995,1.99999995 C5.59999997,1.99999995 5.99999997,2.39999995 5.99999995,2.99999995 L5.99999995,4.99999995 C5.99999997,5.59999997 5.59999997,5.99999997 4.99999995,5.99999995 L2.99999995,5.99999995 C2.39999995,5.99999997 1.99999995,5.59999997 1.99999995,4.99999995 L1.99999995,2.99999995 C1.99999995,2.39999995 2.39999995,1.99999995 2.99999995,1.99999995 Z M11,1.99999995 L13,1.99999995 C13.6,1.99999995 14,2.39999995 14,2.99999995 L14,4.99999995 C14,5.59999997 13.6,5.99999997 13,5.99999995 L11,5.99999995 C10.4,5.99999997 9.99999999,5.59999997 9.99999999,4.99999995 L9.99999999,2.99999995 C9.99999999,2.39999995 10.4,1.99999995 11,1.99999995 Z M19,1.99999995 L21,1.99999995 C21.6,1.99999995 22.0000001,2.39999995 22,2.99999995 L22,4.99999995 C22.0000001,5.59999997 21.6,5.99999997 21,5.99999995 L19,5.99999995 C18.4,5.99999997 18,5.59999997 18,4.99999995 L18,2.99999995 C18,2.39999995 18.4,1.99999995 19,1.99999995 Z M2.99999995,9.99999999 L4.99999995,9.99999999 C5.59999997,9.99999999 5.99999997,10.4 5.99999995,11 L5.99999995,13 C5.99999997,13.6 5.59999997,14 4.99999995,14 L2.99999995,14 C2.39999995,14 1.99999995,13.6 1.99999995,13 L1.99999995,11 C1.99999995,10.4 2.39999995,9.99999999 2.99999995,9.99999999 Z M11,9.99999999 L13,9.99999999 C13.6,9.99999999 14,10.4 14,11 L14,13 C14,13.6 13.6,14 13,14 L11,14 C10.4,14 9.99999999,13.6 9.99999999,13 L9.99999999,11 C9.99999999,10.4 10.4,9.99999999 11,9.99999999 Z M19,9.99999999 L21,9.99999999 C21.6,9.99999999 22.0000001,10.4 22,11 L22,13 C22.0000001,13.6 21.6,14 21,14 L19,14 C18.4,14 18,13.6 18,13 L18,11 C18,10.4 18.4,9.99999999 19,9.99999999 Z M2.99999995,18 L4.99999995,18 C5.59999997,18 5.99999997,18.4 5.99999995,19 L5.99999995,21 C5.99999997,21.6 5.59999997,22.0000001 4.99999995,22 L2.99999995,22 C2.39999995,22.0000001 1.99999995,21.6 1.99999995,21 L1.99999995,19 C1.99999995,18.4 2.39999995,18 2.99999995,18 Z M11,18 L13,18 C13.6,18 14,18.4 14,19 L14,21 C14,21.6 13.6,22.0000001 13,22 L11,22 C10.4,22.0000001 9.99999999,21.6 9.99999999,21 L9.99999999,19 C9.99999999,18.4 10.4,18 11,18 Z M19,18 L21,18 C21.6,18 22.0000001,18.4 22,19 L22,21 C22.0000001,21.6 21.6,22.0000001 21,22 L19,22 C18.4,22.0000001 18,21.6 18,21 L18,19 C18,18.4 18.4,18 19,18 Z"/>
  </defs>
  <use fill="#492F5C" fill-rule="evenodd" xlink:href="#menu-grid-a"/>
</svg>
